images/16758514.svg

<?xml version="1.0" encoding="UTF-8"?>
<svg xmlns="http://www.w3.org/2000/svg" xmlns:xlink="http://www.w3.org/1999/xlink" width="300pt" height="300pt" viewBox="0 0 300 300" version="1.1">
<defs>
<g>
<symbol overflow="visible" id="glyph0-0">
<path style="stroke:none;" d="M 0.453125 1.59375 L 0.453125 -6.34375 L 4.953125 -6.34375 L 4.953125 1.59375 Z M 0.953125 1.09375 L 4.453125 1.09375 L 4.453125 -5.84375 L 0.953125 -5.84375 Z M 0.953125 1.09375 "/>
</symbol>
<symbol overflow="visible" id="glyph0-1">
<path style="stroke:none;" d="M 3.546875 -5.953125 C 2.898438 -5.953125 2.382812 -5.710938 2 -5.234375 C 1.625 -4.753906 1.4375 -4.101562 1.4375 -3.28125 C 1.4375 -2.445312 1.625 -1.789062 2 -1.3125 C 2.382812 -0.832031 2.898438 -0.59375 3.546875 -0.59375 C 4.191406 -0.59375 4.703125 -0.832031 5.078125 -1.3125 C 5.453125 -1.789062 5.640625 -2.445312 5.640625 -3.28125 C 5.640625 -4.101562 5.453125 -4.753906 5.078125 -5.234375 C 4.703125 -5.710938 4.191406 -5.953125 3.546875 -5.953125 Z M 3.546875 -6.6875 C 4.460938 -6.6875 5.195312 -6.375 5.75 -5.75 C 6.300781 -5.132812 6.578125 -4.3125 6.578125 -3.28125 C 6.578125 -2.238281 6.300781 -1.410156 5.75 -0.796875 C 5.195312 -0.179688 4.460938 0.125 3.546875 0.125 C 2.617188 0.125 1.878906 -0.179688 1.328125 -0.796875 C 0.773438 -1.410156 0.5 -2.238281 0.5 -3.28125 C 0.5 -4.3125 0.773438 -5.132812 1.328125 -5.75 C 1.878906 -6.375 2.617188 -6.6875 3.546875 -6.6875 Z M 3.546875 -6.6875 "/>
</symbol>
<symbol overflow="visible" id="glyph0-2">
<path style="stroke:none;" d="M 0.890625 -6.5625 L 2.078125 -6.5625 L 4.984375 -1.078125 L 4.984375 -6.5625 L 5.84375 -6.5625 L 5.84375 0 L 4.65625 0 L 1.75 -5.484375 L 1.75 0 L 0.890625 0 Z M 0.890625 -6.5625 "/>
</symbol>
<symbol overflow="visible" id="glyph0-3">
<path style="stroke:none;" d="M 0.890625 -6.5625 L 1.765625 -6.5625 L 1.765625 -3.875 L 5 -3.875 L 5 -6.5625 L 5.890625 -6.5625 L 5.890625 0 L 5 0 L 5 -3.125 L 1.765625 -3.125 L 1.765625 0 L 0.890625 0 Z M 0.890625 -6.5625 "/>
</symbol>
</g>
</defs>
<g id="surface30241">
<rect x="0" y="0" width="300" height="300" style="fill:rgb(100%,100%,100%);fill-opacity:1;stroke:none;"/>
<path style="fill:none;stroke-width:1;stroke-linecap:butt;stroke-linejoin:miter;stroke:rgb(0%,0%,0%);stroke-opacity:1;stroke-miterlimit:10;" d="M 105.851562 148.628906 L 105.851562 148.628906 M 104.761719 151.421875 L 105.785156 151.625 M 103.671875 154.21875 L 105.71875 154.625 M 102.585938 157.011719 L 105.652344 157.625 M 101.496094 159.808594 L 105.585938 160.625 M 100.40625 162.605469 L 105.519531 163.625 M 99.320312 165.398438 L 105.453125 166.621094 "/>
<path style="fill:none;stroke-width:1.2;stroke-linecap:butt;stroke-linejoin:miter;stroke:rgb(0%,0%,0%);stroke-opacity:1;stroke-miterlimit:10;" d="M 105.851562 148.628906 L 92.53125 136.9375 "/>
<path style="fill:none;stroke-width:1.2;stroke-linecap:butt;stroke-linejoin:miter;stroke:rgb(0%,0%,0%);stroke-opacity:1;stroke-miterlimit:10;" d="M 105.851562 148.628906 L 122.636719 142.9375 "/>
<path style="fill:none;stroke-width:1.2;stroke-linecap:butt;stroke-linejoin:miter;stroke:rgb(0%,0%,0%);stroke-opacity:1;stroke-miterlimit:10;" d="M 92.53125 136.9375 L 75.746094 142.628906 "/>
<path style="fill:none;stroke-width:1.2;stroke-linecap:butt;stroke-linejoin:miter;stroke:rgb(0%,0%,0%);stroke-opacity:1;stroke-miterlimit:10;" d="M 89.511719 133.558594 L 76.085938 138.109375 "/>
<path style="fill:none;stroke-width:1.2;stroke-linecap:butt;stroke-linejoin:miter;stroke:rgb(0%,0%,0%);stroke-opacity:1;stroke-miterlimit:10;" d="M 75.746094 142.628906 L 72.28125 160.007812 "/>
<path style="fill:none;stroke-width:1.2;stroke-linecap:butt;stroke-linejoin:miter;stroke:rgb(0%,0%,0%);stroke-opacity:1;stroke-miterlimit:10;" d="M 72.28125 160.007812 L 55.496094 165.699219 "/>
<path style="fill:none;stroke-width:1.2;stroke-linecap:butt;stroke-linejoin:miter;stroke:rgb(0%,0%,0%);stroke-opacity:1;stroke-miterlimit:10;" d="M 56.875 164.132812 L 50.214844 158.285156 "/>
<path style="fill:none;stroke-width:1.2;stroke-linecap:butt;stroke-linejoin:miter;stroke:rgb(100%,0%,0%);stroke-opacity:1;stroke-miterlimit:10;" d="M 50.214844 158.285156 L 43.554688 152.441406 "/>
<path style="fill:none;stroke-width:1.2;stroke-linecap:butt;stroke-linejoin:miter;stroke:rgb(0%,0%,0%);stroke-opacity:1;stroke-miterlimit:10;" d="M 54.121094 167.265625 L 47.460938 161.421875 "/>
<path style="fill:none;stroke-width:1.2;stroke-linecap:butt;stroke-linejoin:miter;stroke:rgb(100%,0%,0%);stroke-opacity:1;stroke-miterlimit:10;" d="M 47.460938 161.421875 L 40.800781 155.574219 "/>
<path style="fill:none;stroke-width:1.2;stroke-linecap:butt;stroke-linejoin:miter;stroke:rgb(0%,0%,0%);stroke-opacity:1;stroke-miterlimit:10;" d="M 55.496094 165.699219 L 53.765625 174.390625 "/>
<path style="fill:none;stroke-width:1.2;stroke-linecap:butt;stroke-linejoin:miter;stroke:rgb(100%,0%,0%);stroke-opacity:1;stroke-miterlimit:10;" d="M 53.765625 174.390625 L 52.035156 183.082031 "/>
<path style=" stroke:none;fill-rule:nonzero;fill:rgb(100%,100%,100%);fill-opacity:1;" d="M 34.175781 148.507812 L 42.175781 148.507812 L 42.175781 159.507812 L 34.175781 159.507812 Z M 34.175781 148.507812 "/>
<g style="fill:rgb(100%,0%,0%);fill-opacity:1;">
  <use xlink:href="#glyph0-1" x="34.175781" y="157.170898"/>
</g>
<path style="fill:none;stroke-width:1.2;stroke-linecap:butt;stroke-linejoin:miter;stroke:rgb(100%,0%,0%);stroke-opacity:1;stroke-miterlimit:10;" d="M 52.035156 183.082031 L 43.640625 185.925781 "/>
<path style="fill:none;stroke-width:1.2;stroke-linecap:butt;stroke-linejoin:miter;stroke:rgb(0%,0%,0%);stroke-opacity:1;stroke-miterlimit:10;" d="M 43.640625 185.925781 L 35.25 188.769531 "/>
<path style=" stroke:none;fill-rule:nonzero;fill:rgb(100%,100%,100%);fill-opacity:1;" d="M 48.035156 177.582031 L 56.035156 177.582031 L 56.035156 188.582031 L 48.035156 188.582031 Z M 48.035156 177.582031 "/>
<g style="fill:rgb(100%,0%,0%);fill-opacity:1;">
  <use xlink:href="#glyph0-1" x="48.035156" y="186.245117"/>
</g>
<path style=" stroke:none;fill-rule:nonzero;fill:rgb(0%,0%,0%);fill-opacity:1;" d="M 122.636719 142.9375 L 129.164062 126.167969 L 123.03125 124.945312 Z M 122.636719 142.9375 "/>
<path style="fill:none;stroke-width:1.2;stroke-linecap:butt;stroke-linejoin:miter;stroke:rgb(0%,0%,0%);stroke-opacity:1;stroke-miterlimit:10;" d="M 122.636719 142.9375 L 129.296875 148.78125 "/>
<path style="fill:none;stroke-width:1.2;stroke-linecap:butt;stroke-linejoin:miter;stroke:rgb(100%,0%,0%);stroke-opacity:1;stroke-miterlimit:10;" d="M 129.296875 148.78125 L 135.957031 154.625 "/>
<path style="fill:none;stroke-width:1.2;stroke-linecap:butt;stroke-linejoin:miter;stroke:rgb(0%,0%,0%);stroke-opacity:1;stroke-miterlimit:10;" d="M 126.097656 125.554688 L 134.492188 122.710938 "/>
<path style="fill:none;stroke-width:1.2;stroke-linecap:butt;stroke-linejoin:miter;stroke:rgb(0%,0%,100%);stroke-opacity:1;stroke-miterlimit:10;" d="M 134.492188 122.710938 L 142.882812 119.863281 "/>
<path style="fill:none;stroke-width:1.2;stroke-linecap:butt;stroke-linejoin:miter;stroke:rgb(0%,0%,0%);stroke-opacity:1;stroke-miterlimit:10;" d="M 129.117188 128.9375 L 135.828125 126.660156 "/>
<path style="fill:none;stroke-width:1.2;stroke-linecap:butt;stroke-linejoin:miter;stroke:rgb(0%,0%,100%);stroke-opacity:1;stroke-miterlimit:10;" d="M 135.828125 126.660156 L 142.542969 124.382812 "/>
<path style="fill:none;stroke-width:1.2;stroke-linecap:butt;stroke-linejoin:miter;stroke:rgb(0%,0%,100%);stroke-opacity:1;stroke-miterlimit:10;" d="M 142.882812 119.863281 L 149.542969 125.710938 "/>
<path style="fill:none;stroke-width:1.2;stroke-linecap:butt;stroke-linejoin:miter;stroke:rgb(100%,0%,0%);stroke-opacity:1;stroke-miterlimit:10;" d="M 149.542969 125.710938 L 156.203125 131.554688 "/>
<path style=" stroke:none;fill-rule:nonzero;fill:rgb(100%,100%,100%);fill-opacity:1;" d="M 139.882812 114.363281 L 146.882812 114.363281 L 146.882812 125.363281 L 139.882812 125.363281 Z M 139.882812 114.363281 "/>
<g style="fill:rgb(0%,0%,100%);fill-opacity:1;">
  <use xlink:href="#glyph0-2" x="139.882812" y="123.026367"/>
</g>
<path style=" stroke:none;fill-rule:nonzero;fill:rgb(0%,0%,0%);fill-opacity:1;" d="M 172.988281 125.863281 L 155.199219 128.59375 L 157.207031 134.515625 Z M 172.988281 125.863281 "/>
<path style=" stroke:none;fill-rule:nonzero;fill:rgb(100%,100%,100%);fill-opacity:1;" d="M 152.203125 126.054688 L 160.203125 126.054688 L 160.203125 137.054688 L 152.203125 137.054688 Z M 152.203125 126.054688 "/>
<g style="fill:rgb(100%,0%,0%);fill-opacity:1;">
  <use xlink:href="#glyph0-1" x="152.203125" y="134.717773"/>
</g>
<path style="fill:none;stroke-width:1.2;stroke-linecap:butt;stroke-linejoin:miter;stroke:rgb(0%,0%,0%);stroke-opacity:1;stroke-miterlimit:10;" d="M 172.988281 125.863281 L 176.453125 108.484375 "/>
<path style="fill:none;stroke-width:1.2;stroke-linecap:butt;stroke-linejoin:miter;stroke:rgb(0%,0%,0%);stroke-opacity:1;stroke-miterlimit:10;" d="M 172.988281 125.863281 L 186.308594 137.554688 "/>
<path style="fill:none;stroke-width:1.2;stroke-linecap:butt;stroke-linejoin:miter;stroke:rgb(0%,0%,0%);stroke-opacity:1;stroke-miterlimit:10;" d="M 186.308594 137.554688 L 184.679688 155.203125 "/>
<path style="fill:none;stroke-width:1.2;stroke-linecap:butt;stroke-linejoin:miter;stroke:rgb(0%,0%,0%);stroke-opacity:1;stroke-miterlimit:10;" d="M 190.296875 139.703125 L 188.996094 153.820312 "/>
<path style="fill:none;stroke-width:1.2;stroke-linecap:butt;stroke-linejoin:miter;stroke:rgb(0%,0%,100%);stroke-opacity:1;stroke-miterlimit:10;" d="M 203.59375 133.648438 L 194.953125 135.601562 "/>
<path style="fill:none;stroke-width:1.2;stroke-linecap:butt;stroke-linejoin:miter;stroke:rgb(0%,0%,0%);stroke-opacity:1;stroke-miterlimit:10;" d="M 194.953125 135.601562 L 186.308594 137.554688 "/>
<path style="fill:none;stroke-width:1.2;stroke-linecap:butt;stroke-linejoin:miter;stroke:rgb(0%,0%,0%);stroke-opacity:1;stroke-miterlimit:10;" d="M 184.679688 155.203125 L 192.820312 158.703125 "/>
<path style="fill:none;stroke-width:1.2;stroke-linecap:butt;stroke-linejoin:miter;stroke:rgb(0%,0%,100%);stroke-opacity:1;stroke-miterlimit:10;" d="M 192.820312 158.703125 L 200.960938 162.203125 "/>
<path style="fill:none;stroke-width:1.2;stroke-linecap:butt;stroke-linejoin:miter;stroke:rgb(0%,0%,100%);stroke-opacity:1;stroke-miterlimit:10;" d="M 200.960938 162.203125 L 212.652344 148.882812 "/>
<path style=" stroke:none;fill-rule:nonzero;fill:rgb(0%,0%,0%);fill-opacity:1;" d="M 204.867188 179.492188 L 204.011719 161.515625 L 197.910156 162.894531 Z M 204.867188 179.492188 "/>
<path style=" stroke:none;fill-rule:nonzero;fill:rgb(100%,100%,100%);fill-opacity:1;" d="M 197.960938 156.703125 L 204.960938 156.703125 L 204.960938 167.703125 L 197.960938 167.703125 Z M 197.960938 156.703125 "/>
<g style="fill:rgb(0%,0%,100%);fill-opacity:1;">
  <use xlink:href="#glyph0-2" x="197.960938" y="165.366211"/>
</g>
<path style="fill:none;stroke-width:1.2;stroke-linecap:butt;stroke-linejoin:miter;stroke:rgb(0%,0%,100%);stroke-opacity:1;stroke-miterlimit:10;" d="M 212.652344 148.882812 L 203.59375 133.648438 "/>
<path style="fill:none;stroke-width:1.2;stroke-linecap:butt;stroke-linejoin:miter;stroke:rgb(0%,0%,100%);stroke-opacity:1;stroke-miterlimit:10;" d="M 208.160156 149.492188 L 200.914062 137.304688 "/>
<path style=" stroke:none;fill-rule:nonzero;fill:rgb(100%,100%,100%);fill-opacity:1;" d="M 209.652344 143.382812 L 216.652344 143.382812 L 216.652344 154.382812 L 209.652344 154.382812 Z M 209.652344 143.382812 "/>
<g style="fill:rgb(0%,0%,100%);fill-opacity:1;">
  <use xlink:href="#glyph0-2" x="209.652344" y="152.045898"/>
</g>
<path style=" stroke:none;fill-rule:nonzero;fill:rgb(100%,100%,100%);fill-opacity:1;" d="M 200.59375 128.148438 L 207.59375 128.148438 L 207.59375 139.148438 L 200.59375 139.148438 Z M 200.59375 128.148438 "/>
<g style="fill:rgb(0%,0%,100%);fill-opacity:1;">
  <use xlink:href="#glyph0-2" x="200.59375" y="136.811523"/>
</g>
<path style="fill:none;stroke-width:1.2;stroke-linecap:butt;stroke-linejoin:miter;stroke:rgb(0%,0%,0%);stroke-opacity:1;stroke-miterlimit:10;" d="M 204.867188 179.492188 L 221.789062 184.753906 "/>
<path style="fill:none;stroke-width:1.2;stroke-linecap:butt;stroke-linejoin:miter;stroke:rgb(0%,0%,0%);stroke-opacity:1;stroke-miterlimit:10;" d="M 204.867188 179.492188 L 191.847656 191.515625 "/>
<path style="fill:none;stroke-width:1.2;stroke-linecap:butt;stroke-linejoin:miter;stroke:rgb(0%,0%,0%);stroke-opacity:1;stroke-miterlimit:10;" d="M 221.789062 184.753906 L 234.808594 172.726562 "/>
<path style="fill:none;stroke-width:1.2;stroke-linecap:butt;stroke-linejoin:miter;stroke:rgb(0%,0%,0%);stroke-opacity:1;stroke-miterlimit:10;" d="M 234.808594 172.726562 L 251.730469 177.988281 "/>
<path style="fill:none;stroke-width:1.2;stroke-linecap:butt;stroke-linejoin:miter;stroke:rgb(0%,0%,0%);stroke-opacity:1;stroke-miterlimit:10;" d="M 237.738281 169.269531 L 251.277344 173.480469 "/>
<path style="fill:none;stroke-width:1.2;stroke-linecap:butt;stroke-linejoin:miter;stroke:rgb(0%,0%,0%);stroke-opacity:1;stroke-miterlimit:10;" d="M 230.902344 155.441406 L 234.808594 172.726562 "/>
<path style="fill:none;stroke-width:1.2;stroke-linecap:butt;stroke-linejoin:miter;stroke:rgb(0%,0%,0%);stroke-opacity:1;stroke-miterlimit:10;" d="M 251.730469 177.988281 L 264.75 165.964844 "/>
<path style="fill:none;stroke-width:1.2;stroke-linecap:butt;stroke-linejoin:miter;stroke:rgb(0%,0%,0%);stroke-opacity:1;stroke-miterlimit:10;" d="M 264.75 165.964844 L 260.84375 148.675781 "/>
<path style="fill:none;stroke-width:1.2;stroke-linecap:butt;stroke-linejoin:miter;stroke:rgb(0%,0%,0%);stroke-opacity:1;stroke-miterlimit:10;" d="M 260.292969 165.152344 L 257.167969 151.324219 "/>
<path style="fill:none;stroke-width:1.2;stroke-linecap:butt;stroke-linejoin:miter;stroke:rgb(0%,0%,0%);stroke-opacity:1;stroke-miterlimit:10;" d="M 260.84375 148.675781 L 243.921875 143.414062 "/>
<path style="fill:none;stroke-width:1.2;stroke-linecap:butt;stroke-linejoin:miter;stroke:rgb(0%,0%,0%);stroke-opacity:1;stroke-miterlimit:10;" d="M 243.921875 143.414062 L 230.902344 155.441406 "/>
<path style="fill:none;stroke-width:1.2;stroke-linecap:butt;stroke-linejoin:miter;stroke:rgb(0%,0%,0%);stroke-opacity:1;stroke-miterlimit:10;" d="M 245.449219 147.679688 L 235.035156 157.300781 "/>
<path style="fill:none;stroke-width:1.2;stroke-linecap:butt;stroke-linejoin:miter;stroke:rgb(0%,0%,0%);stroke-opacity:1;stroke-miterlimit:10;" d="M 191.847656 191.515625 L 183.386719 188.886719 "/>
<path style="fill:none;stroke-width:1.2;stroke-linecap:butt;stroke-linejoin:miter;stroke:rgb(100%,0%,0%);stroke-opacity:1;stroke-miterlimit:10;" d="M 183.386719 188.886719 L 174.921875 186.253906 "/>
<path style=" stroke:none;fill-rule:nonzero;fill:rgb(100%,100%,100%);fill-opacity:1;" d="M 159.921875 180.753906 L 174.921875 180.753906 L 174.921875 191.753906 L 159.921875 191.753906 Z M 159.921875 180.753906 "/>
<g style="fill:rgb(100%,0%,0%);fill-opacity:1;">
  <use xlink:href="#glyph0-3" x="159.921875" y="189.416992"/>
  <use xlink:href="#glyph0-1" x="166.936523" y="189.416992"/>
</g>
<path style="fill:none;stroke-width:1.2;stroke-linecap:butt;stroke-linejoin:miter;stroke:rgb(100%,0%,0%);stroke-opacity:1;stroke-miterlimit:10;" d="M 135.957031 154.625 L 134.222656 163.316406 "/>
<path style="fill:none;stroke-width:1.2;stroke-linecap:butt;stroke-linejoin:miter;stroke:rgb(0%,0%,0%);stroke-opacity:1;stroke-miterlimit:10;" d="M 134.222656 163.316406 L 132.492188 172.007812 "/>
<path style=" stroke:none;fill-rule:nonzero;fill:rgb(100%,100%,100%);fill-opacity:1;" d="M 131.957031 149.125 L 139.957031 149.125 L 139.957031 160.125 L 131.957031 160.125 Z M 131.957031 149.125 "/>
<g style="fill:rgb(100%,0%,0%);fill-opacity:1;">
  <use xlink:href="#glyph0-1" x="131.957031" y="157.788086"/>
</g>
</g>
</svg>

<svg xmlns="http://www.w3.org/2000/svg" xmlns:xlink="http://www.w3.org/1999/xlink" width="300pt" height="300pt" viewBox="0 0 300 300"><defs><symbol overflow="visible"><path d="M.453 1.594v-7.938h4.5v7.938zm.5-.5h3.5v-6.938h-3.5zm0 0"/></symbol><symbol overflow="visible" id="a"><path d="M3.547-5.953c-.65 0-1.164.242-1.547.72-.375.48-.563 1.13-.563 1.952 0 .835.188 1.49.563 1.967.383.48.898.72 1.547.72.644 0 1.156-.24 1.53-.72.376-.476.564-1.132.564-1.968 0-.822-.187-1.474-.562-1.954-.375-.477-.887-.72-1.53-.72zm0-.734c.914 0 1.648.312 2.203.937.55.617.828 1.438.828 2.47 0 1.042-.277 1.87-.828 2.483-.555.617-1.29.922-2.203.922-.93 0-1.668-.305-2.22-.922C.774-1.41.5-2.237.5-3.28c0-1.033.273-1.853.828-2.47.55-.625 1.29-.938 2.22-.938zm0 0"/></symbol><symbol overflow="visible" id="b"><path d="M.89-6.563H2.08l2.906 5.485v-5.484h.86V0H4.656L1.75-5.484V0H.89zm0 0"/></symbol><symbol overflow="visible" id="c"><path d="M.89-6.563h.876v2.688H5v-2.688h.89V0H5v-3.125H1.766V0H.89zm0 0"/></symbol></defs><g><path fill="#fff" d="M0 0h300v300H0z"/><path d="M105.852 148.63m-1.09 2.792l1.023.203m-2.113 2.594l2.047.405m-3.134 2.387l3.066.613m-4.156 2.184l4.09.815m-5.18 1.98l5.114 1.02m-6.2 1.773l6.133 1.223" stroke="#000" stroke-miterlimit="10" fill="none"/><path d="M105.852 148.63l-13.32-11.692M105.852 148.63l16.785-5.692M92.53 136.938l-16.784 5.69M89.512 133.56l-13.426 4.55M75.746 142.63l-3.465 17.378M72.28 160.008l-16.784 5.69M56.875 164.133l-6.66-5.848" stroke-width="1.2" stroke="#000" stroke-miterlimit="10" fill="none"/><path d="M50.215 158.285l-6.66-5.844" stroke-width="1.2" stroke="#f00" stroke-miterlimit="10" fill="none"/><path d="M54.12 167.266l-6.66-5.844" stroke-width="1.2" stroke="#000" stroke-miterlimit="10" fill="none"/><path d="M47.46 161.422l-6.66-5.848" stroke-width="1.2" stroke="#f00" stroke-miterlimit="10" fill="none"/><path d="M55.496 165.7l-1.73 8.69" stroke-width="1.2" stroke="#000" stroke-miterlimit="10" fill="none"/><path d="M53.766 174.39l-1.73 8.692" stroke-width="1.2" stroke="#f00" stroke-miterlimit="10" fill="none"/><path d="M34.176 148.508h8v11h-8zm0 0" fill="#fff"/><use xlink:href="#a" x="34.176" y="157.171" fill="#f00"/><path d="M52.035 183.082l-8.394 2.844" stroke-width="1.2" stroke="#f00" stroke-miterlimit="10" fill="none"/><path d="M43.64 185.926l-8.39 2.844" stroke-width="1.2" stroke="#000" stroke-miterlimit="10" fill="none"/><path d="M48.035 177.582h8v11h-8zm0 0" fill="#fff"/><use xlink:href="#a" x="48.035" y="186.245" fill="#f00"/><path d="M122.637 142.938l6.527-16.77-6.133-1.223zm0 0"/><path d="M122.637 142.938l6.66 5.843" stroke-width="1.2" stroke="#000" stroke-miterlimit="10" fill="none"/><path d="M129.297 148.78l6.66 5.845" stroke-width="1.2" stroke="#f00" stroke-miterlimit="10" fill="none"/><path d="M126.098 125.555l8.394-2.844" stroke-width="1.2" stroke="#000" stroke-miterlimit="10" fill="none"/><path d="M134.492 122.71l8.39-2.847" stroke-width="1.2" stroke="#00f" stroke-miterlimit="10" fill="none"/><path d="M129.117 128.938l6.71-2.278" stroke-width="1.2" stroke="#000" stroke-miterlimit="10" fill="none"/><path d="M135.828 126.66l6.715-2.277M142.883 119.863l6.66 5.848" stroke-width="1.2" stroke="#00f" stroke-miterlimit="10" fill="none"/><path d="M149.543 125.71l6.66 5.845" stroke-width="1.2" stroke="#f00" stroke-miterlimit="10" fill="none"/><path d="M139.883 114.363h7v11h-7zm0 0" fill="#fff"/><use xlink:href="#b" x="139.883" y="123.026" fill="#00f"/><path d="M172.988 125.863l-17.79 2.73 2.01 5.923zm0 0"/><path d="M152.203 126.055h8v11h-8zm0 0" fill="#fff"/><use xlink:href="#a" x="152.203" y="134.718" fill="#f00"/><path d="M172.988 125.863l3.465-17.38M172.988 125.863l13.32 11.692M186.31 137.555l-1.63 17.648M190.297 139.703l-1.3 14.117" stroke-width="1.2" stroke="#000" stroke-miterlimit="10" fill="none"/><path d="M203.594 133.648l-8.64 1.954" stroke-width="1.2" stroke="#00f" stroke-miterlimit="10" fill="none"/><path d="M194.953 135.602l-8.644 1.953M184.68 155.203l8.14 3.5" stroke-width="1.2" stroke="#000" stroke-miterlimit="10" fill="none"/><path d="M192.82 158.703l8.14 3.5M200.96 162.203l11.692-13.32" stroke-width="1.2" stroke="#00f" stroke-miterlimit="10" fill="none"/><path d="M204.867 179.492l-.855-17.976-6.102 1.38zm0 0"/><path d="M197.96 156.703h7v11h-7zm0 0" fill="#fff"/><use xlink:href="#b" x="197.961" y="165.366" fill="#00f"/><path d="M212.652 148.883l-9.058-15.235M208.16 149.492l-7.246-12.187" stroke-width="1.2" stroke="#00f" stroke-miterlimit="10" fill="none"/><path d="M209.652 143.383h7v11h-7zm0 0" fill="#fff"/><use xlink:href="#b" x="209.652" y="152.046" fill="#00f"/><path d="M200.594 128.148h7v11h-7zm0 0" fill="#fff"/><use xlink:href="#b" x="200.594" y="136.812" fill="#00f"/><path d="M204.867 179.492l16.922 5.262M204.867 179.492l-13.02 12.024M221.79 184.754l13.02-12.027M234.81 172.727l16.92 5.26M237.738 169.27l13.54 4.21M230.902 155.44l3.907 17.287M251.73 177.988l13.02-12.023M264.75 165.965l-3.906-17.29M260.293 165.152l-3.125-13.828M260.844 148.676l-16.922-5.262M243.922 143.414l-13.02 12.027M245.45 147.68l-10.415 9.62M191.848 191.516l-8.46-2.63" stroke-width="1.2" stroke="#000" stroke-miterlimit="10" fill="none"/><path d="M183.387 188.887l-8.465-2.633" stroke-width="1.2" stroke="#f00" stroke-miterlimit="10" fill="none"/><path d="M159.922 180.754h15v11h-15zm0 0" fill="#fff"/><g fill="#f00"><use xlink:href="#c" x="159.922" y="189.417"/><use xlink:href="#a" x="166.937" y="189.417"/></g><path d="M135.957 154.625l-1.734 8.69" stroke-width="1.2" stroke="#f00" stroke-miterlimit="10" fill="none"/><path d="M134.223 163.316l-1.73 8.692" stroke-width="1.2" stroke="#000" stroke-miterlimit="10" fill="none"/><path d="M131.957 149.125h8v11h-8zm0 0" fill="#fff"/><use xlink:href="#a" x="131.957" y="157.788" fill="#f00"/></g></svg>
